X: 1287
T: Kürdî Peşrev
C: Şehzâde Korkut
O: Turkey
F: http://compmusic.upf.edu/node/140
N: kurdi--pesrev--devrikebir----sehzade_korkut
N: makam= kurdi
N: form= pesrev
N: usul= devrikebir = 28/4
M: 28/4
L: 1/16
K: C _B   
Q: 1/4=132
%%MIDI tuningsystem comma53
c4 d4 e8  | A8 e2d2 e4  | e4 d4 d8  | c4 =B4 c4 d4  | \
w:  SERHÂNE  |   |   |   | 
e8 A8  | e2d2 e4 e4 d4  | 
w:   |   | 
d8 c4 =B4  | c4 d4 e8  | A8 e4 d4  | e8 f8  | \
w:   |   |   |   | 
e4 d4 d4 c4  | d8 e4 d4  | e8 d4 c4  | 
w:   |   |   | 
c4 =B4 A8  | d4 e4 d4 d2c2  | e8 e8  | d4 c4 c4 =B4  | \
w:   |   |   |   | 
A8 d4 e4  | d4 d2c2 e8  | 
w:   |   | 
e8 d4 c4  | c4 =B4 A8  | =B4 c4 d4 d2c2  | \
w:   |   |   | 
e8 e8  | d4 =B4 c8  | c4 =B4 B4 c4  | =B8 d4 c4  | 
w:   |   |   |   | 
c4 =B4 c4 B4  | A16  | G8 c16 d8  | d4 c4 e8  | \
w:   |   |  MÜLÂZİME  |   | 
e8 e2d2 e4  | e8 e4 d4  | d4 c4 d8  | 
w:   |   |   | 
e8 d4 c4  | c2=B2 c4 c8  | c4 =B4 A4 G4  | \
w:   |   |   | 
A4 =B4 c8  | =B8 e4 d4  | d8 c4 =B4  | A4 =B4 c4 d4  | 
w:   |   |   |   | 
=B8 A8  | A8 A8  | G4 ^F4 A8  | ^F4 G4 A16 =B4 c4  | \
w:   |   |   |   | 
=B8 d4 c4  | c4 =B4 c4 B4  | A16  | e2d2 e4 e8  | 
w:   |   |   |  HÂNE-İ SÂNİ  | 
e8 ^f4 g4  | ^f4 e4 d8  | c8 d2c2 d4  | \
w:   |   |   | 
d8 d8  | e4 f4 d4 c4  | c8 _1/4B8  | c2_1/4B2 c4 c8  | 
w:   |   |   |   | 
c8 c8  | e8 d16 e4 ^f4  | g4 a4 g4 ^f4  | e16  | \
w:   |   |   |   | 
d4 c4 _1/4B4 A4  | e2d2 e4 e8  | e8 ^f4 g4  | 
w:   |   |   | 
^f4 e4 d8  | c8 d2c2 d4  | d8 d8  | e4 f4 d4 c4  | \
w:   |   |   |   | 
c8 _1/4B8  | c2_1/4B2 c4 c8  | c8 c8  | 
w:   |   |   | 
e8 d16 A8  | _1/4B8 G8  | A16  | A16  | G8 c16 d8  | \
w:   |   |   |   |  MÜLÂZİME  | 
d4 c4 e8  | e8 e2d2 e4  | e8 e4 d4  | d4 c4 d8  | 
w:   |   |   |   | 
e8 d4 c4  | c2=B2 c4 c8  | c4 =B4 A4 G4  | \
w:   |   |   | 
A4 =B4 c8  | =B8 e4 d4  | d8 c4 =B4  | A4 =B4 c4 d4  | 
w:   |   |   |   | 
=B8 A8  | A8 A8  | G4 ^F4 A8  | ^F4 G4 A16 =B4 c4  | \
w:   |   |   |   | 
=B8 d4 c4  | c4 =B4 c4 B4  | A16  | A4 c'4 _1/4b8  | 
w:   |   |   |   | 
a8 g8  | ^f8 e8  | d8 c2_1/4B2 c4  | c8 _1/4B8  | \
w:  HÂNE-İ SÂLİS  |   |   |   | 
A8 G4 ^F4  | A16  | G4 A4 _1/4B8  | c8 d8  | \
w:   |   |   |   | 
e8 ^f8  | 
w:   | 
g8 c'4 _1/4b4  | c'4 d'4 c'4 _1/4b4  | \
w:   |   | 
a8 ^f4 g4  | a16  | A4 c'4 _1/4b8  | a8 g8  | \
w:   |   |   |   | 
^f8 e8  | d8 c2_1/4B2 c4  | 
w:   |   | 
c8 _1/4B8  | A8 G4 ^F4  | A16  | G8 c8  | c8 d8  | \
w:   |   |   |   |   | 
d4 c4 e16 A8  | _1/4B8 G8  | A16  | A16  | \
w:   |   |   |   | 
G8 c16 d8  | 
w:  MÜLÂZİME  | 
d4 c4 e8  | e8 e2d2 e4  | e8 e4 d4  | d4 c4 d8  | \
w:   |   |   |   | 
e8 d4 c4  | c2=B2 c4 c8  | c4 =B4 A4 G4  | 
w:   |   |   | 
A4 =B4 c8  | =B8 e4 d4  | d8 c4 =B4  | A4 =B4 c4 d4  | \
w:   |   |   |   | 
=B8 A8  | A8 A8  | G4 ^F4 A8  | ^F4 G4 A16 =B4 c4  | 
w:   |   |   |   | 
=B8 d4 c4  | c4 =B4 c4 B4  | A16  | |


